swiss/communes/0535.svg

<?xml version="1.0" encoding="UTF-8" standalone="no"?>
<svg
   xmlns:dc="http://purl.org/dc/elements/1.1/"
   xmlns:cc="http://web.resource.org/cc/"
   xmlns:rdf="http://www.w3.org/1999/02/22-rdf-syntax-ns#"
   xmlns:svg="http://www.w3.org/2000/svg"
   xmlns="http://www.w3.org/2000/svg"
   xmlns:xlink="http://www.w3.org/1999/xlink"
   xmlns:sodipodi="http://sodipodi.sourceforge.net/DTD/sodipodi-0.dtd"
   xmlns:inkscape="http://www.inkscape.org/namespaces/inkscape"
   height="763"
   width="603"
   version="1.0"
   id="svg20"
   sodipodi:version="0.32"
   inkscape:version="0.45.1"
   sodipodi:docname="Deisswil bei Münchenbuchsee.svg"
   sodipodi:docbase="C:\Users\Camilo\Documents\Escudos de Suiza"
   inkscape:output_extension="org.inkscape.output.svg.inkscape">
  <metadata
     id="metadata31">
    <rdf:RDF>
      <cc:Work
         rdf:about="">
        <dc:format>image/svg+xml</dc:format>
        <dc:type
           rdf:resource="http://purl.org/dc/dcmitype/StillImage" />
        <dc:date>07-AUG-2006</dc:date>
        <dc:creator>
          <cc:Agent>
            <dc:title>Jérôme BLUM (wagner51)</dc:title>
          </cc:Agent>
        </dc:creator>
        <cc:license
           rdf:resource="http://creativecommons.org/licenses/GPL/2.0/" />
        <dc:coverage />
        <dc:description>Gabarit pour le Projet:Blasons de WIkipédia</dc:description>
        <dc:subject>
          <rdf:Bag>
            <rdf:li>blason suisse modèle gabarit projet blasons</rdf:li>
          </rdf:Bag>
        </dc:subject>
        <dc:language>fr</dc:language>
        <dc:title>Gabrit d'un blason suisse</dc:title>
      </cc:Work>
      <cc:License
         rdf:about="http://creativecommons.org/licenses/GPL/2.0/">
        <cc:permits
           rdf:resource="http://web.resource.org/cc/Reproduction" />
        <cc:permits
           rdf:resource="http://web.resource.org/cc/Distribution" />
        <cc:requires
           rdf:resource="http://web.resource.org/cc/Notice" />
        <cc:permits
           rdf:resource="http://web.resource.org/cc/DerivativeWorks" />
        <cc:requires
           rdf:resource="http://web.resource.org/cc/ShareAlike" />
        <cc:requires
           rdf:resource="http://web.resource.org/cc/SourceCode" />
      </cc:License>
    </rdf:RDF>
  </metadata>
  <defs
     id="defs29">
    <linearGradient
       id="linearGradient2893">
      <stop
         style="stop-color:#ffffff;stop-opacity:0.3137255;"
         offset="0"
         id="stop2895" />
      <stop
         id="stop2897"
         offset="0.19"
         style="stop-color:#ffffff;stop-opacity:0.25098041;" />
      <stop
         style="stop-color:#6b6b6b;stop-opacity:0.1254902;"
         offset="0.60000002"
         id="stop2901" />
      <stop
         style="stop-color:#000000;stop-opacity:0.1254902;"
         offset="1"
         id="stop2899" />
    </linearGradient>
    <radialGradient
       inkscape:collect="always"
       xlink:href="#linearGradient2893"
       id="radialGradient3236"
       gradientUnits="userSpaceOnUse"
       gradientTransform="matrix(1.215027,1.531577e-24,1.464684e-23,1.266667,-839.1924,-490.4894)"
       cx="858.04236"
       cy="579.93323"
       fx="858.04236"
       fy="579.93323"
       r="300" />
  </defs>
  <sodipodi:namedview
     inkscape:window-height="750"
     inkscape:window-width="1280"
     inkscape:pageshadow="2"
     inkscape:pageopacity="0.0"
     guidetolerance="10.0"
     gridtolerance="10.0"
     objecttolerance="10.0"
     borderopacity="1.0"
     bordercolor="#666666"
     pagecolor="#ffffff"
     id="base"
     inkscape:zoom="0.50327654"
     inkscape:cx="704.96198"
     inkscape:cy="253.79627"
     inkscape:window-x="-8"
     inkscape:window-y="-8"
     inkscape:current-layer="layer2"
     showgrid="true"
     showguides="false" />
  <desc
     id="desc22">Coat of Arms of Canton of Freiburg (Fribourg)</desc>
  <g
     inkscape:groupmode="layer"
     id="layer1"
     inkscape:label="Fond écu"
     style="display:inline"
     sodipodi:insensitive="true">
    <path
       id="path1899"
       d="M 1.5,1.49998 L 1.5,460.3679 C 1.5,626.6785 135.81456,761.5 301.49999,761.5 C 467.18543,761.5 601.5,626.6785 601.5,460.3679 L 601.5,1.49998 L 1.5,1.49998 z "
       style="fill:#ffffff;fill-opacity:1" />
    <rect
       style="fill:#e20909;fill-opacity:1;fill-rule:evenodd;stroke:#000000;stroke-width:3.69344616;stroke-miterlimit:4;stroke-dasharray:none;stroke-opacity:1"
       id="rect12290"
       width="599.30658"
       height="376.30655"
       x="1.8467102"
       y="1.8467231" />
  </g>
  <g
     inkscape:groupmode="layer"
     id="layer2"
     inkscape:label="Meubles"
     style="display:inline"
     sodipodi:insensitive="true">
    <path
       style="fill:#fcef3c;fill-opacity:1;fill-rule:evenodd;stroke:#000000;stroke-width:4.2182703px;stroke-linecap:butt;stroke-linejoin:miter;stroke-opacity:1"
       d="M 301.91687,64.05248 C 277.85864,64.11989 254.87928,66.99393 232.8427,72.62085 L 256.30683,114.14443 C 226.37305,119.0717 198.47539,131.19586 172.73234,150.79065 L 153.22284,106.36699 C 112.91693,130.34132 77.697874,159.28405 54.093494,199.95986 L 97.858044,217.22841 C 81.220894,242.94573 69.766224,271.176 65.693734,303.17567 L 21.138254,274.30688 C 15.515254,305.9264 10.000034,337.58516 16.656344,377.39086 L 271.07077,377.39086 L 271.07077,324.26702 L 332.36751,324.26702 L 332.36751,377.39086 L 586.12288,377.39086 C 591.75648,341.89935 589.75128,307.70546 582.82728,274.30688 L 538.40368,303.17567 C 533.38848,269.68138 522.73848,240.26008 503.07568,217.22841 L 550.00388,199.95986 C 521.64038,158.41125 489.69218,124.91666 450.87458,106.36699 L 440.59248,150.79065 C 411.45528,130.77483 380.8049,115.41062 345.41779,114.14443 L 377.31846,72.62085 C 351.09157,66.72434 325.97511,63.98508 301.91687,64.05248 z M 333.02662,179.13215 C 417.28568,199.86719 459.13028,253.73855 476.44778,326.77162 L 380.48216,326.77162 L 380.48216,279.84336 L 333.02662,279.84336 L 333.02662,179.13215 z M 271.8617,181.24129 L 271.8617,281.9525 L 224.40616,281.9525 L 224.40616,328.88075 L 128.4405,328.88075 C 145.75806,255.84769 187.60263,201.97632 271.8617,181.24129 z "
       id="path9375" />
  </g>
  <g
     inkscape:groupmode="layer"
     id="layer3"
     inkscape:label="Reflet final"
     style="display:inline"
     sodipodi:insensitive="true">
    <path
       style="fill:url(#radialGradient3236);fill-opacity:1"
       d="M 1.5,1.5 L 1.5,460.3679 C 1.5,626.67854 135.81454,761.5 301.49993,761.5 C 467.1854,761.5 601.5,626.67854 601.5,460.3679 L 601.5,1.5 L 1.5,1.5 z "
       id="path2346" />
  </g>
  <g
     inkscape:groupmode="layer"
     id="layer4"
     inkscape:label="Contour final"
     style="display:inline"
     sodipodi:insensitive="true">
    <path
       style="fill:none;fill-opacity:1;stroke:#000000;stroke-width:3;stroke-miterlimit:4;stroke-dasharray:none;stroke-opacity:1"
       d="M 1.5,1.5 L 1.5,460.36794 C 1.5,626.67854 135.81454,761.5 301.49993,761.5 C 467.1854,761.5 601.5,626.67854 601.5,460.36794 L 601.5,1.5 L 1.5,1.5 z "
       id="path3239" />
  </g>
</svg>

<svg xmlns="http://www.w3.org/2000/svg" xmlns:xlink="http://www.w3.org/1999/xlink" height="763" width="603" version="1.0"><defs><radialGradient xlink:href="#a" id="b" gradientUnits="userSpaceOnUse" gradientTransform="matrix(1.21503 0 0 1.26667 -839.192 -490.49)" cx="858.042" cy="579.933" fx="858.042" fy="579.933" r="300"/><linearGradient id="a"><stop style="stop-color:#fff;stop-opacity:.3137255" offset="0"/><stop offset=".19" style="stop-color:#fff;stop-opacity:.25098041"/><stop style="stop-color:#6b6b6b;stop-opacity:.1254902" offset=".6"/><stop style="stop-color:#000;stop-opacity:.1254902" offset="1"/></linearGradient></defs><g style="display:inline"><path d="M1.5 1.5v458.868c0 166.31 134.315 301.132 300 301.132s300-134.822 300-301.132V1.5H1.5z" style="fill:#fff;fill-opacity:1"/><path style="fill:#e20909;fill-opacity:1;fill-rule:evenodd;stroke:#000;stroke-width:3.69344616;stroke-miterlimit:4;stroke-dasharray:none;stroke-opacity:1" d="M1.847 1.847h599.307v376.307H1.847z"/></g><g style="display:inline"><path style="fill:#fcef3c;fill-opacity:1;fill-rule:evenodd;stroke:#000;stroke-width:4.2182703px;stroke-linecap:butt;stroke-linejoin:miter;stroke-opacity:1" d="M301.917 64.052c-24.058.068-47.038 2.942-69.074 8.569l23.464 41.523c-29.934 4.928-57.832 17.052-83.575 36.647l-19.51-44.424c-40.305 23.974-75.524 52.917-99.129 93.593l43.765 17.268c-16.637 25.718-28.092 53.948-32.164 85.948l-44.556-28.87c-5.623 31.62-11.138 63.28-4.482 103.085h254.415v-53.124h61.297v53.124h253.755c5.633-35.492 3.628-69.686-3.296-103.084l-44.423 28.869c-5.016-33.495-15.666-62.916-35.328-85.948l46.928-17.268c-28.364-41.549-60.312-75.043-99.13-93.593l-10.282 44.424c-29.137-20.016-59.787-35.38-95.174-36.647l31.9-41.523c-26.226-5.897-51.343-8.636-75.401-8.569zm31.11 115.08c84.259 20.735 126.103 74.607 143.42 147.64h-95.965v-46.929h-47.455v-100.71zm-61.165 2.11v100.71h-47.456v46.929H128.44c17.318-73.033 59.163-126.905 143.422-147.64z"/></g><g style="display:inline"><path style="fill:url(#b);fill-opacity:1" d="M1.5 1.5v458.868c0 166.31 134.315 301.132 300 301.132s300-134.821 300-301.132V1.5H1.5z"/></g><g style="display:inline"><path style="fill:none;fill-opacity:1;stroke:#000;stroke-width:3;stroke-miterlimit:4;stroke-dasharray:none;stroke-opacity:1" d="M1.5 1.5v458.868c0 166.31 134.315 301.132 300 301.132s300-134.821 300-301.132V1.5H1.5z"/></g></svg>
